X: 26
T:Eavesdropper, The
M:6/8
L:1/8
R:Double Jig
K:G
E[|:DBB BAG|Bdd dBG|cee dBG|BAA AGE|!
DBB BAG|Bdd dBG|cee dBA|1BGG G2E:|2BGG GBd|!
|:gfg afd|efg dBG|cee dBG|BAA ABd|!
gab afd|efg dBG|cee dBA|1BGG GBd:|2BGG G2E|]!
